X:1
T:Title
%%score { 1 | 2 }
L:1/8
M:3/4
K:Ab
V:1 treble nm="Grand Piano"
V:2 bass 
V:1
 z2 z2[Q:1/4=112] E2 | A3 E E2 | c2 A2 C2 | E2 F2 E2 | E2 C2 E2 | [Ec]3 [EB] [EA]2 | %6
 [Ed]2 [Ed]2 [Ec]2 | [=DB]2 [DF]2 [Dc]2 | B4 BB | [FB]2 [FB]2 [=Dc]2 | [FB]2 F2 [=Dc]2 | %11
 [EB]2 [EB]2 [Ec]2 | [EB]2 [EG]2 [GB][GB] | [A=d]2 [Ac]2 [GB]2 | [=DA]2 [DG]2 [DF]2 | E2 G2 B2 | %16
 [Gd]6 |[M:1/4] E2 |[M:3/4] [Ec]2 [Ec]3 [=D_c] | [Ec]4 [CE]2 | [Ec]2 [Ec]3 [=D_c] | %21
 [Ec]2 [CA]2 [Ec]2 | e2 e3 e | e2 d2 c2 | [=DAc]2 [DAB]2 [DAc]2 | [EGB]4 EE | d2 d3 c | d2 c2 B2 | %28
 A2 A2 B2 | c2 c2 cc | d2 c2 [EB]2 | %31
 [Ee]2 [E_Ge]2 [Fd]2[Q:1/4=110][Q:1/4=109][Q:1/4=107][Q:1/4=105][Q:1/4=104][Q:1/4=102][Q:1/4=100][Q:1/4=99][Q:1/4=97][Q:1/4=96][Q:1/4=94][Q:1/4=92][Q:1/4=91][Q:1/4=89][Q:1/4=87][Q:1/4=86] | %32
[M:7/8] c2 c3 B2 |[M:2/4] [CA]4 |] %34
V:2
 z2 z2 E,2 | A,3 E, E,2 | C2 A,2 C,2 | E,2 F,2 E,2 | E,2 C,2 E,2 | [A,,A,]3 [B,,G,] [C,A,]2 | %6
 [B,,G,]2 [B,,G,]2 [A,,A,]2 | [B,,A,]2 [B,,A,]2 [B,,A,]2 | [E,G,E]4 [E,G,E][E,G,E] | %9
 [=D,A,]2 [D,A,]2 [B,,A,]2 | [=D,A,]2 [D,A,]2 [B,,A,]2 | [E,G,]2 [E,G,]2 [B,,G,]2 | %12
 [E,G,]2 [E,B,]2 [B,,B,][B,,B,] | [F,B,]2 [F,B,]2 [B,,B,]2 | [F,B,]2 [F,B,]2 [B,,A,]2 | %15
 [E,G,]2 [E,B,E]2 [E,G,E]2 | [E,B,E]6 |[M:1/4] [E,G,]2 |[M:3/4] [A,,A,]2 [A,,A,]3 [A,,A,] | %19
 [A,,A,]4 [A,,A,]2 | [A,,A,]2 [A,,A,]3 [A,,A,] | [A,,A,]2 [A,,E,]2 [A,,A,]2 | %22
 [A,CE]2 [A,CE]3 [B,DE] | [CEA]2 [B,EG]2 [A,EA]2 | F,2 F,2 B,,2 | E,4 [E,G,][E,G,] | %26
 [E,B,E]2 [E,B,E]3 [E,=A,E] | [E,B,E]2 [E,A,E]2 [E,G,D]2 | [F,A,C]2 [F,A,C]2 [E,G,E]2 | %29
 [A,E]2 [A,E]2 [_G,A,E][G,A,E] | [F,A,D]2 [E,A,E]2 [D,G,]2 | [C,A,]2 [C,A,]2 [D,A,]2 | %32
[M:7/8] [E,A,E]2 [E,A,E]3 [E,G,D]2 |[M:2/4] [A,,A,]4 |] %34

